frontend/user_office/src/img/icon_market.svg

<?xml version="1.0" encoding="UTF-8"?>
<svg width="25px" height="25px" viewBox="0 0 25 25" version="1.1" xmlns="http://www.w3.org/2000/svg" xmlns:xlink="http://www.w3.org/1999/xlink">
    <!-- Generator: Sketch 49.3 (51167) - http://www.bohemiancoding.com/sketch -->
    <title>shopping-bag</title>
    <desc>Created with Sketch.</desc>
    <defs></defs>
    <g id="Page-1" stroke="none" stroke-width="1" fill="none" fill-rule="evenodd">
        <g id="Dashboard-2" transform="translate(-41.000000, -588.000000)" fill="#EAF1FE" fill-rule="nonzero">
            <g id="shopping-bag" transform="translate(41.000000, 588.000000)">
                <path d="M24.9961332,22.9222005 L23.7354091,2.07779948 C23.6662329,0.934375 22.6743392,0 21.5205356,0 L3.49152395,0 C2.32828423,0 1.34556631,0.930273437 1.27554416,2.07779948 L0.00388725131,22.9222005 C-0.0658745933,24.065625 0.811679954,25 1.96450745,25 L23.0344067,25 C24.1933513,25 25.0655046,24.0697266 24.9961332,22.9222005 Z M2.82833089,22.2222656 L4.01460763,2.77779948 L20.9960853,2.77779948 L22.1721451,22.2222656 L2.82833089,22.2222656 Z" id="Shape"></path>
                <path d="M15.341009,6.68181818 L15.341009,10.01455 C15.341009,10.2096104 15.2554484,10.6072789 15.0104857,10.9868828 C14.6035238,11.6175351 13.8695011,11.9967678 12.5000666,11.9967678 C11.1306321,11.9967678 10.3966093,11.617597 9.98964751,10.9868828 C9.74468473,10.6072789 9.6591242,10.2096104 9.6591242,10.01455 L9.6591242,6.68181818 L6.81818182,6.68181818 L6.81818182,10.01455 C6.81818182,10.6449547 6.99895756,11.485577 7.55300358,12.3442019 C8.4777231,13.7773056 10.1407268,14.6363636 12.5,14.6363636 C14.8592732,14.6363636 16.5222769,13.7773056 17.4469964,12.3442019 C18.0010424,11.485577 18.1818182,10.6449547 18.1818182,10.01455 L18.1818182,6.68181818 L15.341009,6.68181818 Z" id="Shape"></path>
            </g>
        </g>
    </g>
</svg>

<svg xmlns="http://www.w3.org/2000/svg" width="25" height="25">
  <g fill="#EAF1FE">
    <path d="M24.9961 22.9222L23.7354 2.0778C23.6662.9344 22.6744 0 21.5205 0H3.4915c-1.1632 0-2.146.9303-2.216 2.0778L.004 22.9222C-.066 24.0656.8117 25 1.9645 25h21.07c1.1589 0 2.031-.9303 1.9616-2.0778zm-22.1678-.7L4.0146 2.7779h16.9815l1.176 19.4445H2.8283z"/>
    <path d="M15.341 6.6818v3.3327c0 .1951-.0856.5928-.3305.9724-.407.6306-1.141 1.0099-2.5104 1.0099-1.3695 0-2.1035-.3792-2.5105-1.01-.245-.3795-.3305-.7772-.3305-.9723V6.6818h-2.841v3.3327c0 .6305.1809 1.471.7349 2.3297.9247 1.4331 2.5877 2.2922 4.947 2.2922s4.0223-.859 4.947-2.2922c.554-.8586.7348-1.6992.7348-2.3297V6.6818H15.341z"/>
  </g>
</svg>
